(Exported by FreeCAD)
(Post Processor: grbl_post)
(Output Time:2026-02-16 10:28:59.699012)
(Begin preamble)
G17 G90
G21
(Begin operation: Fixture)
(Path: Fixture)
G54
(Finish operation: Fixture)
(Begin operation: TC: Sharkbits_DownCut-2-Flute)
(Path: TC: Sharkbits_DownCut-2-Flute)
(TC: Sharkbits_DownCut-2-Flute)
(Begin toolchange)
( M6 T2 )
M3 S10000
(Finish operation: TC: Sharkbits_DownCut-2-Flute)
(Begin operation: Pocket_Shape)
(Path: Pocket_Shape)
(Pocket_Shape)
G0 Z5.000
G0 X634.661 Y667.000
G0 Z3.000
G1 X634.661 Y667.000 Z-0.500 F600.000
G3 X631.491 Y667.687 Z-0.500 I-1.659 J0.001 K0.000 F2000.000
G3 X634.496 Y666.280 Z-0.500 I1.510 J-0.688 K0.000 F2000.000
G3 X631.504 Y667.720 Z-0.500 I-1.496 J0.720 K0.000 F2000.000
G1 X631.491 Y667.687 Z-0.500 F2000.000
G1 X631.491 Y666.313 Z-0.500 F2000.000
G2 X631.491 Y667.687 Z-0.500 I1.484 J0.687 K0.000 F2000.000
G1 X631.491 Y667.687 Z-1.000 F600.000
G3 X631.491 Y666.313 Z-1.000 I1.484 J-0.687 K0.000 F2000.000
G1 X631.491 Y667.687 Z-1.000 F2000.000
G1 X631.504 Y667.720 Z-1.000 F2000.000
G2 X634.496 Y666.280 Z-1.000 I1.496 J-0.720 K0.000 F2000.000
G2 X631.491 Y667.687 Z-1.000 I-1.496 J0.719 K0.000 F2000.000
G2 X634.661 Y667.000 Z-1.000 I1.511 J-0.685 K0.000 F2000.000
G1 X634.661 Y667.000 Z-1.500 F600.000
G3 X631.491 Y667.687 Z-1.500 I-1.659 J0.001 K0.000 F2000.000
G3 X634.496 Y666.280 Z-1.500 I1.510 J-0.688 K0.000 F2000.000
G3 X631.504 Y667.720 Z-1.500 I-1.496 J0.720 K0.000 F2000.000
G1 X631.491 Y667.687 Z-1.500 F2000.000
G1 X631.491 Y666.313 Z-1.500 F2000.000
G2 X631.491 Y667.687 Z-1.500 I1.484 J0.687 K0.000 F2000.000
G1 X631.491 Y667.687 Z-2.000 F600.000
G3 X631.491 Y666.313 Z-2.000 I1.484 J-0.687 K0.000 F2000.000
G1 X631.491 Y667.687 Z-2.000 F2000.000
G1 X631.504 Y667.720 Z-2.000 F2000.000
G2 X634.496 Y666.280 Z-2.000 I1.496 J-0.720 K0.000 F2000.000
G2 X631.491 Y667.687 Z-2.000 I-1.496 J0.719 K0.000 F2000.000
G2 X634.661 Y667.000 Z-2.000 I1.511 J-0.685 K0.000 F2000.000
G1 X634.661 Y667.000 Z-2.500 F600.000
G3 X631.491 Y667.687 Z-2.500 I-1.659 J0.001 K0.000 F2000.000
G3 X634.496 Y666.280 Z-2.500 I1.510 J-0.688 K0.000 F2000.000
G3 X631.504 Y667.720 Z-2.500 I-1.496 J0.720 K0.000 F2000.000
G1 X631.491 Y667.687 Z-2.500 F2000.000
G1 X631.491 Y666.313 Z-2.500 F2000.000
G2 X631.491 Y667.687 Z-2.500 I1.484 J0.687 K0.000 F2000.000
G1 X631.491 Y667.687 Z-3.000 F600.000
G3 X631.491 Y666.313 Z-3.000 I1.484 J-0.687 K0.000 F2000.000
G1 X631.491 Y667.687 Z-3.000 F2000.000
G1 X631.504 Y667.720 Z-3.000 F2000.000
G2 X634.496 Y666.280 Z-3.000 I1.496 J-0.720 K0.000 F2000.000
G2 X631.491 Y667.687 Z-3.000 I-1.496 J0.719 K0.000 F2000.000
G2 X634.661 Y667.000 Z-3.000 I1.511 J-0.685 K0.000 F2000.000
G1 X634.661 Y667.000 Z-3.500 F600.000
G3 X631.491 Y667.687 Z-3.500 I-1.659 J0.001 K0.000 F2000.000
G3 X634.496 Y666.280 Z-3.500 I1.510 J-0.688 K0.000 F2000.000
G3 X631.504 Y667.720 Z-3.500 I-1.496 J0.720 K0.000 F2000.000
G1 X631.491 Y667.687 Z-3.500 F2000.000
G1 X631.491 Y666.313 Z-3.500 F2000.000
G2 X631.491 Y667.687 Z-3.500 I1.484 J0.687 K0.000 F2000.000
G1 X631.491 Y667.687 Z-4.000 F600.000
G3 X631.491 Y666.313 Z-4.000 I1.484 J-0.687 K0.000 F2000.000
G1 X631.491 Y667.687 Z-4.000 F2000.000
G1 X631.504 Y667.720 Z-4.000 F2000.000
G2 X634.496 Y666.280 Z-4.000 I1.496 J-0.720 K0.000 F2000.000
G2 X631.491 Y667.687 Z-4.000 I-1.496 J0.719 K0.000 F2000.000
G2 X634.661 Y667.000 Z-4.000 I1.511 J-0.685 K0.000 F2000.000
G1 X634.661 Y667.000 Z-4.500 F600.000
G3 X631.491 Y667.687 Z-4.500 I-1.659 J0.001 K0.000 F2000.000
G3 X634.496 Y666.280 Z-4.500 I1.510 J-0.688 K0.000 F2000.000
G3 X631.504 Y667.720 Z-4.500 I-1.496 J0.720 K0.000 F2000.000
G1 X631.491 Y667.687 Z-4.500 F2000.000
G1 X631.491 Y666.313 Z-4.500 F2000.000
G2 X631.491 Y667.687 Z-4.500 I1.484 J0.687 K0.000 F2000.000
G1 X631.491 Y667.687 Z-5.000 F600.000
G3 X631.491 Y666.313 Z-5.000 I1.484 J-0.687 K0.000 F2000.000
G1 X631.491 Y667.687 Z-5.000 F2000.000
G1 X631.504 Y667.720 Z-5.000 F2000.000
G2 X634.496 Y666.280 Z-5.000 I1.496 J-0.720 K0.000 F2000.000
G2 X631.491 Y667.687 Z-5.000 I-1.496 J0.719 K0.000 F2000.000
G2 X634.661 Y667.000 Z-5.000 I1.511 J-0.685 K0.000 F2000.000
G1 X634.661 Y667.000 Z-5.500 F600.000
G3 X631.491 Y667.687 Z-5.500 I-1.659 J0.001 K0.000 F2000.000
G3 X634.496 Y666.280 Z-5.500 I1.510 J-0.688 K0.000 F2000.000
G3 X631.504 Y667.720 Z-5.500 I-1.496 J0.720 K0.000 F2000.000
G1 X631.491 Y667.687 Z-5.500 F2000.000
G1 X631.491 Y666.313 Z-5.500 F2000.000
G2 X631.491 Y667.687 Z-5.500 I1.484 J0.687 K0.000 F2000.000
G1 X631.491 Y667.687 Z-6.000 F600.000
G3 X631.491 Y666.313 Z-6.000 I1.484 J-0.687 K0.000 F2000.000
G1 X631.491 Y667.687 Z-6.000 F2000.000
G1 X631.504 Y667.720 Z-6.000 F2000.000
G2 X634.496 Y666.280 Z-6.000 I1.496 J-0.720 K0.000 F2000.000
G2 X631.491 Y667.687 Z-6.000 I-1.496 J0.719 K0.000 F2000.000
G2 X634.661 Y667.000 Z-6.000 I1.511 J-0.685 K0.000 F2000.000
G1 X634.661 Y667.000 Z-6.500 F600.000
G3 X631.491 Y667.687 Z-6.500 I-1.659 J0.001 K0.000 F2000.000
G3 X634.496 Y666.280 Z-6.500 I1.510 J-0.688 K0.000 F2000.000
G3 X631.504 Y667.720 Z-6.500 I-1.496 J0.720 K0.000 F2000.000
G1 X631.491 Y667.687 Z-6.500 F2000.000
G1 X631.491 Y666.313 Z-6.500 F2000.000
G2 X631.491 Y667.687 Z-6.500 I1.484 J0.687 K0.000 F2000.000
G1 X631.491 Y667.687 Z-7.000 F600.000
G3 X631.491 Y666.313 Z-7.000 I1.484 J-0.687 K0.000 F2000.000
G1 X631.491 Y667.687 Z-7.000 F2000.000
G1 X631.504 Y667.720 Z-7.000 F2000.000
G2 X634.496 Y666.280 Z-7.000 I1.496 J-0.720 K0.000 F2000.000
G2 X631.491 Y667.687 Z-7.000 I-1.496 J0.719 K0.000 F2000.000
G2 X634.661 Y667.000 Z-7.000 I1.511 J-0.685 K0.000 F2000.000
G1 X634.661 Y667.000 Z-7.500 F600.000
G3 X631.491 Y667.687 Z-7.500 I-1.659 J0.001 K0.000 F2000.000
G3 X634.496 Y666.280 Z-7.500 I1.510 J-0.688 K0.000 F2000.000
G3 X631.504 Y667.720 Z-7.500 I-1.496 J0.720 K0.000 F2000.000
G1 X631.491 Y667.687 Z-7.500 F2000.000
G1 X631.491 Y666.313 Z-7.500 F2000.000
G2 X631.491 Y667.687 Z-7.500 I1.484 J0.687 K0.000 F2000.000
G1 X631.491 Y667.687 Z-8.000 F600.000
G3 X631.491 Y666.313 Z-8.000 I1.484 J-0.687 K0.000 F2000.000
G1 X631.491 Y667.687 Z-8.000 F2000.000
G1 X631.504 Y667.720 Z-8.000 F2000.000
G2 X634.496 Y666.280 Z-8.000 I1.496 J-0.720 K0.000 F2000.000
G2 X631.491 Y667.687 Z-8.000 I-1.496 J0.719 K0.000 F2000.000
G2 X634.661 Y667.000 Z-8.000 I1.511 J-0.685 K0.000 F2000.000
G1 X634.661 Y667.000 Z-8.500 F600.000
G3 X631.491 Y667.687 Z-8.500 I-1.659 J0.001 K0.000 F2000.000
G3 X634.496 Y666.280 Z-8.500 I1.510 J-0.688 K0.000 F2000.000
G3 X631.504 Y667.720 Z-8.500 I-1.496 J0.720 K0.000 F2000.000
G1 X631.491 Y667.687 Z-8.500 F2000.000
G1 X631.491 Y666.313 Z-8.500 F2000.000
G2 X631.491 Y667.687 Z-8.500 I1.484 J0.687 K0.000 F2000.000
G1 X631.491 Y667.687 Z-9.000 F600.000
G3 X631.491 Y666.313 Z-9.000 I1.484 J-0.687 K0.000 F2000.000
G1 X631.491 Y667.687 Z-9.000 F2000.000
G1 X631.504 Y667.720 Z-9.000 F2000.000
G2 X634.496 Y666.280 Z-9.000 I1.496 J-0.720 K0.000 F2000.000
G2 X631.491 Y667.687 Z-9.000 I-1.496 J0.719 K0.000 F2000.000
G2 X634.661 Y667.000 Z-9.000 I1.511 J-0.685 K0.000 F2000.000
G1 X634.661 Y667.000 Z-9.500 F600.000
G3 X631.491 Y667.687 Z-9.500 I-1.659 J0.001 K0.000 F2000.000
G3 X634.496 Y666.280 Z-9.500 I1.510 J-0.688 K0.000 F2000.000
G3 X631.504 Y667.720 Z-9.500 I-1.496 J0.720 K0.000 F2000.000
G1 X631.491 Y667.687 Z-9.500 F2000.000
G1 X631.491 Y666.313 Z-9.500 F2000.000
G2 X631.491 Y667.687 Z-9.500 I1.484 J0.687 K0.000 F2000.000
G1 X631.491 Y667.687 Z-10.000 F600.000
G3 X631.491 Y666.313 Z-10.000 I1.484 J-0.687 K0.000 F2000.000
G1 X631.491 Y667.687 Z-10.000 F2000.000
G1 X631.504 Y667.720 Z-10.000 F2000.000
G2 X634.496 Y666.280 Z-10.000 I1.496 J-0.720 K0.000 F2000.000
G2 X631.491 Y667.687 Z-10.000 I-1.496 J0.719 K0.000 F2000.000
G2 X634.661 Y667.000 Z-10.000 I1.511 J-0.685 K0.000 F2000.000
G1 X634.661 Y667.000 Z-10.500 F600.000
G3 X631.491 Y667.687 Z-10.500 I-1.659 J0.001 K0.000 F2000.000
G3 X634.496 Y666.280 Z-10.500 I1.510 J-0.688 K0.000 F2000.000
G3 X631.504 Y667.720 Z-10.500 I-1.496 J0.720 K0.000 F2000.000
G1 X631.491 Y667.687 Z-10.500 F2000.000
G1 X631.491 Y666.313 Z-10.500 F2000.000
G2 X631.491 Y667.687 Z-10.500 I1.484 J0.687 K0.000 F2000.000
G1 X631.491 Y667.687 Z-11.000 F600.000
G3 X631.491 Y666.313 Z-11.000 I1.484 J-0.687 K0.000 F2000.000
G1 X631.491 Y667.687 Z-11.000 F2000.000
G1 X631.504 Y667.720 Z-11.000 F2000.000
G2 X634.496 Y666.280 Z-11.000 I1.496 J-0.720 K0.000 F2000.000
G2 X631.491 Y667.687 Z-11.000 I-1.496 J0.719 K0.000 F2000.000
G2 X634.661 Y667.000 Z-11.000 I1.511 J-0.685 K0.000 F2000.000
G1 X634.661 Y667.000 Z-11.500 F600.000
G3 X631.491 Y667.687 Z-11.500 I-1.659 J0.001 K0.000 F2000.000
G3 X634.496 Y666.280 Z-11.500 I1.510 J-0.688 K0.000 F2000.000
G3 X631.504 Y667.720 Z-11.500 I-1.496 J0.720 K0.000 F2000.000
G1 X631.491 Y667.687 Z-11.500 F2000.000
G1 X631.491 Y666.313 Z-11.500 F2000.000
G2 X631.491 Y667.687 Z-11.500 I1.484 J0.687 K0.000 F2000.000
G1 X631.491 Y667.687 Z-12.000 F600.000
G3 X631.491 Y666.313 Z-12.000 I1.484 J-0.687 K0.000 F2000.000
G1 X631.491 Y667.687 Z-12.000 F2000.000
G1 X631.504 Y667.720 Z-12.000 F2000.000
G2 X634.496 Y666.280 Z-12.000 I1.496 J-0.720 K0.000 F2000.000
G2 X631.491 Y667.687 Z-12.000 I-1.496 J0.719 K0.000 F2000.000
G2 X634.661 Y667.000 Z-12.000 I1.511 J-0.685 K0.000 F2000.000
G1 X634.661 Y667.000 Z-12.500 F600.000
G3 X631.491 Y667.687 Z-12.500 I-1.659 J0.001 K0.000 F2000.000
G3 X634.496 Y666.280 Z-12.500 I1.510 J-0.688 K0.000 F2000.000
G3 X631.504 Y667.720 Z-12.500 I-1.496 J0.720 K0.000 F2000.000
G1 X631.491 Y667.687 Z-12.500 F2000.000
G1 X631.491 Y666.313 Z-12.500 F2000.000
G2 X631.491 Y667.687 Z-12.500 I1.484 J0.687 K0.000 F2000.000
G1 X631.491 Y667.687 Z-12.700 F600.000
G3 X631.491 Y666.313 Z-12.700 I1.484 J-0.687 K0.000 F2000.000
G1 X631.491 Y667.687 Z-12.700 F2000.000
G1 X631.504 Y667.720 Z-12.700 F2000.000
G2 X634.496 Y666.280 Z-12.700 I1.496 J-0.720 K0.000 F2000.000
G2 X631.491 Y667.687 Z-12.700 I-1.496 J0.719 K0.000 F2000.000
G2 X634.661 Y667.000 Z-12.700 I1.511 J-0.685 K0.000 F2000.000
G0 Z5.000
G0 Z5.000
(Finish operation: Pocket_Shape)
(Begin postamble)
M5
G17 G90
M2
